!!! OTL: Literature3
!!! Chapter: 5
!!! Section: I
!!! Page: 345
!!! Mode: 
!!! Encoder: DJB
**kern
*staff1
*I"Piano
=1-
*clefG2
*k[b-]
*F:
*M4/4
4r
4r
4r
4f/
=2
4cc\
4a/
4f/
4cc\
=3
4dd\
4dd\
4cc\
4cc\
=4
4dd\
4ee\
4ff\
4ee\
=5
4dd\
4dd\
4cc\
4a/
=6
4dd\
4cc\
4b-\
4a/
=7
2g/
4f/
4r
=8
2cc\
2a/
=9
2cc\
2a/
=10
4a/
4a/
4g/
4g/
=11
!!linebreak:original
4a/
4a/
4g/
4a/
=12
4b-\
4a/
2g/
=13
4f/
4r
4ff\
4ee\
=14
4dd\
4cc\
4b-\
4a/
=15
2g/
4f/
4r
==
*-
